dist/img/home/service_card_3.svg

<svg width="174" height="185" viewBox="0 0 174 185" fill="none" xmlns="http://www.w3.org/2000/svg">
<line x1="2.66797" y1="45.549" x2="2.66797" y2="135.621" stroke="#C8C8C8" stroke-dasharray="4 4"/>
<line x1="171.396" y1="46.8146" x2="171.396" y2="136.738" stroke="#C8C8C8" stroke-dasharray="4 4"/>
<path d="M124.161 113.121L87.8692 93.3393L3.16895 137.256L39.4612 157.038M124.161 113.121L123.916 110.346M124.161 113.121L118.95 112.921" stroke="#6F6F6F"/>
<path d="M50.3777 162.986L86.6699 182.768L171.37 138.852L135.078 119.07M50.3777 162.986L50.6233 165.761M50.3777 162.986L55.5895 163.186" stroke="#6F6F6F"/>
<path d="M86.7005 154.688L53.6348 134.561V45.3511M86.7005 154.688L121.203 134.561V45.3511M86.7005 154.688V62.1203M121.203 45.3511L86.7005 26.6626L53.6348 45.3511M121.203 45.3511L86.7005 62.1203M53.6348 45.3511L86.7005 62.1203" stroke="#C8C8C8" stroke-dasharray="4 4"/>
<path fill-rule="evenodd" clip-rule="evenodd" d="M90.9748 35.9748L78.6067 37.8067L75.0505 44.3662L83.8625 49.0936L96.2307 47.2617L99.7868 40.7022L90.9748 35.9748ZM90.356 44.11C92.0486 43.2181 92.1056 41.7896 90.4833 40.9193C88.8611 40.049 86.1739 40.0665 84.4813 40.9584C82.7888 41.8503 82.7318 43.2788 84.354 44.1491C85.9763 45.0194 88.6635 45.0019 90.356 44.11Z" stroke="#CA0001" stroke-linejoin="round"/>
<path d="M124.31 21.1172L88.0176 1.3354L3.31738 45.252L39.6096 65.0338M124.31 21.1172L124.064 18.3424M124.31 21.1172L119.098 20.9173" stroke="#CA0001"/>
<path d="M50.5261 70.9824L86.8183 90.7642L171.519 46.8477L135.226 27.0658M50.5261 70.9824L50.7718 73.7572M50.5261 70.9824L55.7379 71.1823" stroke="#CA0001"/>
</svg>

<svg width="174" height="185" viewBox="0 0 174 185" fill="none" xmlns="http://www.w3.org/2000/svg"><path stroke="#C8C8C8" stroke-dasharray="4 4" d="M2.668 45.549v90.072m168.728-88.806v89.923"/><path d="M124.161 113.121L87.869 93.339l-84.7 43.917 36.292 19.782m84.7-43.917l-.245-2.775m.245 2.775l-5.211-.2m-68.572 50.065l36.292 19.782 84.7-43.916-36.292-19.782m-84.7 43.916l.245 2.775m-.245-2.775l5.212.2" stroke="#6F6F6F"/><path d="M86.7 154.688l-33.065-20.127v-89.21M86.7 154.688l34.502-20.127v-89.21M86.701 154.688V62.12m34.502-16.769L86.701 26.663 53.635 45.35m67.568 0L86.701 62.12M53.635 45.35L86.7 62.121" stroke="#C8C8C8" stroke-dasharray="4 4"/><path fill-rule="evenodd" clip-rule="evenodd" d="M90.975 35.975l-12.368 1.832-3.556 6.56 8.811 4.727 12.369-1.832 3.556-6.56-8.812-4.727zm-.619 8.135c1.693-.892 1.75-2.32.127-3.19-1.622-.871-4.31-.854-6.002.038-1.692.892-1.75 2.32-.127 3.191 1.622.87 4.31.853 6.002-.039z" stroke="#CA0001" stroke-linejoin="round"/><path d="M124.31 21.117L88.018 1.335l-84.7 43.917L39.61 65.034m84.7-43.917l-.246-2.775m.246 2.775l-5.212-.2M50.526 70.982l36.292 19.782 84.701-43.916-36.293-19.782m-84.7 43.916l.246 2.775m-.246-2.775l5.212.2" stroke="#CA0001"/></svg>
